X: 9503
T: Dark Island, The
R: waltz
M: 3/4
K: Aminor
DE|"Am" A4BA|"G" G4AG|"C" E3 D E<G|"D" D4 GA|
"G" B3 AGA|"G" B<(dd2) d2|"Em" B3 ddB|"D" A4 D2|
"Am" A3 ABA|"G" G3 GAG|"C" E3 D E<G|"D" D4 GA|
"G" B2 d2 dB|"D" A3 DBA|"C" (G6|G4) Bc||
"D" d4 d2|"G" B4 d2|"C" E G3 E/G/E|"D" D4 GA|
"G" B3 AGA|Bd3 d2|"Em" B3 ddB|"D" A4 "Am" E2|
"Am" A3 ABA|"G" G3 GAG|"C" E3 D E<G|"D" D4 GA|
"G" B2 d2 dB|"D" A3 DBA|"C" (G6|G4)||

